X:1
T:Faithfulness (Runyan)
T:Faithfulness (Runyan)
T:William Marion Runyan, 1923
T:Public Domain Courtesy of the Cyber Hymnal™
C:William Marion Runyan, 1923
Z:Public Domain
Z:Courtesy of the Cyber Hymnal™
%%score ( 1 2 ) ( 3 4 )
L:1/8
Q:1/4=110
M:3/4
K:D
V:1 treble 
V:2 treble 
V:3 bass 
V:4 bass 
V:1
 [DF]2 [DF]2 [DF]2 | [DF]3 [DE] [DE]2 | [CG]2 [DG]2 [EG]2 | [DG]2 [DF]4 | [DB]2 [Dc]2 [DB]2 | %5
 [DA]3 [DG] [DF]2 | E2 [^DF]2 [=D^G]2 | [CA]6 | [GA]2 [GB]2 [Gc]2 | [Fd]3 [Ac] [GB]2 | %10
 [FA]2 [EG]2 [DF]2 | [DF]2 [DE]4 | [^EB]2 [Ec]2 [Ed]2 | [Fd]3 [FA] [FA]2 | [DF]2 [CF]2 [CE]2 | %15
 [A,D]6 | [CA]2 [CA]2 [CE]2 | [DG]>[DF] [DF]4 | [^DB]2 [DB]2 [DF]2 | [EA]>[EG] [EG]4 | %20
 [GA]2 [GB]2 [Gc]2 | [Fd]2 [FA]2 [=FB]2 | [Ec]2 [Fd]2 [DB]2 | [CA]6 | [GA]2 [GB]2 [Gc]2 | %25
 [Fd]3 [Ac] [GB]2 | [FA]2 [EG]2 [DF]2 | [DF]2 [DE]4 | [^EB]2 [Ec]2 [Ed]2 | [Fd]3 [FA] [FA]2 | %30
 [DF]2 [CG]2 [A,C]2 | [A,D]6 |] %32
V:2
 x6 | x6 | x6 | x6 | x6 | x6 | E2 x4 | x6 | x6 | x6 | x6 | x6 | x6 | x6 | x6 | x6 | x6 | x6 | x6 | %19
 x6 | x6 | x6 | x6 | x6 | x6 | x6 | x6 | x6 | x6 | x6 | x6 | x6 |] %32
V:3
 [D,A,]2 [D,A,]2 [D,^A,]2 | [G,,B,]3 [G,,B,] [G,,B,]2 | [A,,A,]2 [A,,B,]2 [A,,C]2 | %3
 [D,B,]2 [D,A,]4 | G,2 [G,A,]2 G,2 | [F,A,]3 [E,A,] [D,A,]2 | [B,,^G,]2 [B,,A,]2 [E,B,]2 | %7
 [A,,A,]6 | [A,C]2 [A,C]2 A,2 | [D,A,]3 [D,B,] [D,C]2 | [D,D]2 [E,B,]2 [F,A,]2 | [G,B,]2 [G,B,]4 | %12
 [^G,D]2 [G,C]2 [G,B,]2 | A,3 [A,D] [A,D]2 | A,2 [A,,A,]2 [A,,G,]2 | [D,F,]6 | %16
 [A,,E,]2 [A,,E,]2 [A,,A,]2 | [D,B,]>[D,A,] [D,A,]4 | [B,,A,]2 [B,,F,]2 [B,,B,]2 | %19
 [E,=C]>[E,B,] [E,B,]4 | [A,C]2 [A,C]2 A,2 | [D,A,]2 [D,A,]2 [D,A,]2 | [E,A,]2 [E,A,]2 [E,^G,]2 | %23
 [A,,A,]6 | [A,C]2 [A,C]2 A,2 | [D,A,]3 [D,B,] [D,C]2 | [D,D]2 [E,B,]2 [F,A,]2 | [G,B,]2 [G,B,]4 | %28
 [^G,D]2 [G,C]2 [G,B,]2 | A,3 [A,D] [A,D]2 | [A,,A,]2 [A,,E,]2 [A,,G,]2 | [D,F,]6 |] %32
V:4
 x6 | x6 | x6 | x6 | G,2 G,2 x2 | x6 | x6 | x6 | x4 A,2 | x6 | x6 | x6 | x6 | A,3 x3 | A,2 x4 | %15
 x6 | x6 | x6 | x6 | x6 | x6 | x6 | x6 | x6 | x6 | x6 | x6 | x6 | x6 | x6 | x6 | x6 |] %32

